texture_05.svg

<?xml version="1.0" encoding="UTF-8"?>
<svg width="1024.1" height="1024.1" version="1.1" xmlns="http://www.w3.org/2000/svg">
 <g transform="translate(-.014652 .035359)">
  <g fill="#fff">
   <path d="m257 1024h-1v-127h-127v127h-1v-127h-128v-1h128v-127h-128v-1h128v-127h-128v-1h128v-127h-128v-1h128v-127h-128v-1h128v-127h-128v-1h128v-127h-128v-1h128v-128h1v128h127v-128h1v128h127v-128h1v128h127v-128h1v128h127v-128h1v128h127v-128h1v128h127v-128h1v128h127v1h-127v127h127v1h-127v127h127v1h-127v127h127v1h-127v127h127v1h-127v127h127v1h-127v127h127v1h-127v127h-1v-127h-127v127h-1v-127h-127v127h-1v-127h-127v127h-1v-127h-127v127h-1v-127h-127v127m512-767v127h127v-127h-127m-1 0h-127v127h127v-127m1-1h127v-127h-127v127m0 256h127v-127h-127v127m-1-256v-127h-127v127h127m1 512h127v-127h-127v127m-1 0v-127h-127v127h127m1 1v127h127v-127h-127m127-256h-127v127h127v-127m-255 0v127h127v-127h-127m0-1h127v-127h-127v127m-128-256h127v-127h-127v127m-129 128v-127h-127v127h127m128-127h-127v127h127v-127m1 0v127h127v-127h-127m0 255h127v-127h-127v127m-129-383h-127v127h127v-127m128 127v-127h-127v127h127m0 256v-127h-127v127h127m-256-255h-127v127h127v-127m-127-128v127h127v-127h-127m127 383v-127h-127v127h127m0 256v-127h-127v127h127m1 0h127v-127h-127v127m-1 1h-127v127h127v-127m-127-256v127h127v-127h-127m255 0h-127v127h127v-127m256 0h-127v127h127v-127m-128 255v-127h-127v127h127m1 0h127v-127h-127v127m0 1v127h127v-127h-127m-1 0h-127v127h127v-127m-127-256v127h127v-127h-127m-128 256v127h127v-127h-127m0-257h127v-127h-127v127m511 257h-127v127h127v-127" fill-opacity=".10196"/>
   <path d="m2 2v1020h1020v-1020h-1020m-2-2h1024v1024h-1024v-1024"/>
   <path d="m513 511h511v2h-20.1v0.05h-1.9l-489-0.05v511h-2v-511h-511v-2h511v-511h2v511" fill-opacity=".4"/>
  </g>
  <g fill="none" stroke="#fff" stroke-miterlimit="3" stroke-opacity=".2" stroke-width=".05">
   <path d="M 640,128 768,256 896.05,128 767.95,0 640,128 512,0 384.05,128 l 128,128 -128,128 128,128 L 640,384 512.05,256 640,128 M 896.05,384 767.95,256 640,384 768,512 896.05,384 l 128,-128 -128,-128 M 640,640 768,768 896.05,640 767.95,512 640,640 512.05,512 l -128,128 128,128 L 640,640 m 256.05,-256 128,128 -128,128 128,128 -128,128 L 768,1024 640,896 512.05,1024 384.05,896 256,1024 128,896 255.95,768 384.05,896 512.05,768 640,896 767.95,768 896.05,896 M 128,128 255.95,0 384.05,128 256,256 128,128 0.05,256 128,384 255.95,256 384.05,384 256,512 128,384 0.05,512 128,640 255.95,512 384.05,640 256,768 128,640 0.05,768 128,896" stroke-linecap="round"/>
   <path d="m128 896-128 128m896.05-896 127.95-128m-127.95 896 128 128" stroke-linecap="round"/>
   <path d="M 0.05,0 128,128"/>
  </g>
 </g>
</svg>

<?xml version="1.0" encoding="UTF-8" standalone="no"?>
<svg
   version="1.1"
   id="svg20"
   sodipodi:docname="texture_05.svg"
   width="1024.0707"
   height="1024.0707"
   inkscape:version="1.1.2 (0a00cf5339, 2022-02-04)"
   xmlns:inkscape="http://www.inkscape.org/namespaces/inkscape"
   xmlns:sodipodi="http://sodipodi.sourceforge.net/DTD/sodipodi-0.dtd"
   xmlns="http://www.w3.org/2000/svg"
   xmlns:svg="http://www.w3.org/2000/svg">
  <sodipodi:namedview
     id="namedview22"
     pagecolor="#505050"
     bordercolor="#eeeeee"
     borderopacity="1"
     inkscape:pageshadow="0"
     inkscape:pageopacity="0"
     inkscape:pagecheckerboard="0"
     showgrid="false"
     inkscape:zoom="0.25166667"
     inkscape:cx="349.66887"
     inkscape:cy="450.99338"
     inkscape:window-width="1440"
     inkscape:window-height="831"
     inkscape:window-x="1280"
     inkscape:window-y="32"
     inkscape:window-maximized="1"
     inkscape:current-layer="g18" />
  <defs
     id="defs2" />
  <g
     id="g18"
     transform="translate(-0.01465157,0.03535879)">
    <path
       stroke="none"
       fill="#ffffff"
       fill-opacity="0.101961"
       d="m 257,1024 h -1 V 897 H 129 v 127 h -1 V 897 H 0 v -1 H 128 V 769 H 0 v -1 H 128 V 641 H 0 v -1 H 128 V 513 H 0 v -1 H 128 V 385 H 0 v -1 H 128 V 257 H 0 v -1 H 128 V 129 H 0 v -1 H 128 V 0 h 1 V 128 H 256 V 0 h 1 V 128 H 384 V 0 h 1 V 128 H 512 V 0 h 1 V 128 H 640 V 0 h 1 V 128 H 768 V 0 h 1 V 128 H 896 V 0 h 1 v 128 h 127 v 1 H 897 v 127 h 127 v 1 H 897 v 127 h 127 v 1 H 897 v 127 h 127 v 1 H 897 v 127 h 127 v 1 H 897 v 127 h 127 v 1 H 897 v 127 h 127 v 1 H 897 v 127 h -1 V 897 H 769 v 127 h -1 V 897 H 641 v 127 h -1 V 897 H 513 v 127 h -1 V 897 H 385 v 127 h -1 V 897 H 257 v 127 M 769,257 V 384 H 896 V 257 H 769 m -1,0 H 641 V 384 H 768 V 257 m 1,-1 H 896 V 129 H 769 v 127 m 0,256 H 896 V 385 H 769 V 512 M 768,256 V 129 H 641 v 127 h 127 m 1,512 H 896 V 641 H 769 v 127 m -1,0 V 641 H 641 v 127 h 127 m 1,1 V 896 H 896 V 769 H 769 M 896,513 H 769 V 640 H 896 V 513 m -255,0 V 640 H 768 V 513 H 641 m 0,-1 H 768 V 385 H 641 V 512 M 513,256 H 640 V 129 H 513 V 256 M 384,384 V 257 H 257 V 384 H 384 M 512,257 H 385 V 384 H 512 V 257 m 1,0 V 384 H 640 V 257 H 513 m 0,255 H 640 V 385 H 513 V 512 M 384,129 H 257 V 256 H 384 V 129 M 512,256 V 129 H 385 v 127 h 127 m 0,256 V 385 H 385 V 512 H 512 M 256,257 H 129 V 384 H 256 V 257 M 129,129 V 256 H 256 V 129 H 129 M 256,512 V 385 H 129 v 127 h 127 m 0,256 V 641 H 129 v 127 h 127 m 1,0 H 384 V 641 H 257 v 127 m -1,1 H 129 V 896 H 256 V 769 M 129,513 V 640 H 256 V 513 H 129 m 255,0 H 257 V 640 H 384 V 513 m 256,0 H 513 V 640 H 640 V 513 M 512,768 V 641 H 385 v 127 h 127 m 1,0 H 640 V 641 H 513 v 127 m 0,1 V 896 H 640 V 769 H 513 m -1,0 H 385 V 896 H 512 V 769 M 385,513 V 640 H 512 V 513 H 385 M 257,769 V 896 H 384 V 769 H 257 m 0,-257 H 384 V 385 H 257 V 512 M 768,769 H 641 V 896 H 768 V 769"
       id="path6" />
    <path
       stroke="none"
       fill="#ffffff"
       d="M 2,2 V 1022 H 1022 V 2 H 2 M 0,0 H 1024 V 1024 H 0 V 0"
       id="path8" />
    <path
       stroke="none"
       fill="#ffffff"
       fill-opacity="0.4"
       d="m 513,511 h 511 v 2 h -20.1 v 0.05 h -1.05 -0.4 -0.45 L 513,513 v 511 h -2 V 1010.95 513 H 6.95 6.45 6.05 0 v -2 h 511 v -1.1 -0.35 -0.5 V 8.5 0 h 2 v 511"
       id="path10" />
    <path
       fill="none"
       stroke="#ffffff"
       stroke-width="0.05"
       stroke-opacity="0.2"
       stroke-linecap="round"
       stroke-linejoin="miter"
       stroke-miterlimit="3"
       d="M 640,128 768,256 896.05,128 767.95,0 640,128 512,0 384.05,128 l 128,128 -128,128 128,128 L 640,384 512.05,256 640,128 M 896.05,384 767.95,256 640,384 768,512 896.05,384 l 128,-128 -128,-128 M 640,640 768,768 896.05,640 767.95,512 640,640 512.05,512 l -128,128 128,128 L 640,640 m 256.05,-256 128,128 -128,128 128,128 -128,128 L 768,1024 640,896 512.05,1024 384.05,896 256,1024 128,896 255.95,768 384.05,896 512.05,768 640,896 767.95,768 896.05,896 M 128,128 255.95,0 384.05,128 256,256 128,128 0.05,256 128,384 255.95,256 384.05,384 256,512 128,384 0.05,512 128,640 255.95,512 384.05,640 256,768 128,640 0.05,768 128,896"
       id="path12" />
    <path
       fill="none"
       stroke="#ffffff"
       stroke-width="0.05"
       stroke-opacity="0.2"
       stroke-linecap="round"
       stroke-linejoin="miter"
       stroke-miterlimit="3"
       d="M 128,896 0,1024 M 896.05,128 1024,0 m -127.95,896 128,128"
       id="path14" />
    <path
       fill="none"
       stroke="#ffffff"
       stroke-width="0.05"
       stroke-opacity="0.2"
       stroke-linecap="butt"
       stroke-linejoin="miter"
       stroke-miterlimit="3"
       d="M 0.05,0 128,128"
       id="path16" />
  </g>
</svg>
